X: 08242
M: 6/8
L: 1/8
K: D
V: 1 clef=treble middle=B
d/e/ |\
f2d e2c | dcB AGF | GAB AdF | {G}FEE E2d/e/ |\
f2d e2c | dcB edc | fed cdB | Adc BA"D.C."G :|
V: 2 clef=bass middle=d
z |:\
dfa dfa | dgb dgb | dfa dfa | Aea A2z |\
dfa dfa | dgb dgb | dfa Aea | dfa "Fine"d2 H:|
z |\
[d'3d3] [^a3^A3] | b=ag fed | c3 d3 | Ace a2z |\
d'3 c'3 | b3 c'3 | d'3 e'3 | a3 z2"D.C."z :|

